X:1
T:Title
%%score 1 { 2 | 3 }
L:1/8
Q:1/4=97
M:3/4
K:A
V:1 treble nm="Grand Piano, Soprano"
V:2 bass nm="Choir Pad, Hornchurch, 87. 87 D"
V:3 bass 
V:1
 [CE][CE] [DF]3 [DF] | [CE][CE] [EA]2 [CA]2 | [Ec][EA] [EB]3 [EB] | [EA][EB] [Ec]4 | %4
w: By~Anonymous,~1882 * * *||||
 [Ec][Ec] [Fd]3 [Fd] | [Fd][Fd] [Fd]2 [Ec]2 | [Ec][Ec] [EB]3 [EB] | [^DB]>[Dc] [EB]4 | %8
w: ||||
 [CA][CA] [^Ec]2 [Ec]2 | [FA][FA] [^Ec]2 [Ec]2 | [FA][Fc] [FB][FA] [EG]2 | [^DF]2 E4 | %12
w: ||||
 [DE][DE] [CA]3 [CE] | [EA][EB] [Ec]2 [Ae]2 | [=Ge][Ge] [Fd]3 [FB] | [EA][EG] [EA]4- | [EA]4 z2 |] %17
w: |||||
V:2
 A,A, A,3 A, | A,A, A,2 A,2 | A,A, G,3 G, | F,G, A,4 | A,A, A,3 A, | A,A, A,2 A,2 | A,A, G,3 G, | %7
 A,>A, G,4 | A,A, G,2 G,2 | A,A, G,2 G,2 | A,A, B,B, B,2 | A,2 G,4 | G,G, A,3 A, | A,G, A,2 C2 | %14
 A,A, A,3[K:treble] D | CB, C4- | C4 z2 |] %17
V:3
 A,,A,, D,3 D, | A,,A,, C,2 A,,2 | A,,C, E,3 E, | E,E, z2 z2 | z2 D,3 D, | D,D, z2 z2 | z2 E,3 E, | %7
 B,,>B,, E,4 | F,F, C,2 C,2 | F,F, C,2 C,2 | F,F, ^D,D, E,2 | B,,2 E,4 | E,E, A,,3 A,, | %13
 C,E, z2 A,2 | C,C, D,3 D, | E,E, A,,4- | A,,4 z2 |] %17

